img/deals/track.svg

<svg width="24" height="24" fill="none" xmlns="http://www.w3.org/2000/svg"><g clip-path="url(#clip0_1_239)"><path d="M17.247 10.279a2.498 2.498 0 001.753.709c.635 0 1.27-.236 1.752-.709l1.783-1.744a5.005 5.005 0 000-7.071A4.967 4.967 0 0019 0c-1.335 0-2.591.52-3.536 1.464a5.009 5.009 0 00.008 7.079l1.775 1.736zm-.369-7.4A2.98 2.98 0 0119 2a3 3 0 012.129 5.113l-1.775 1.736a.507.507 0 01-.708 0l-1.767-1.728a3.005 3.005 0 010-4.243l-.001.001zM4 22a2 2 0 11-3.999.001A2 2 0 014 22zm10.5-6a2 2 0 11-3.999.001A2 2 0 0114.5 16zM2 13c0-2.206 1.794-4 4-4h7a1 1 0 010 2H6c-1.103 0-2 .897-2 2s.897 2 2 2h2a1 1 0 010 2H6c-2.206 0-4-1.794-4-4zm22 6c0 2.206-1.794 4-4 4H7a1 1 0 010-2h13c1.103 0 2-.897 2-2s-.897-2-2-2h-3a1 1 0 010-2h3c2.206 0 4 1.794 4 4zM20.001 4.787a1 1 0 11-2 0 1 1 0 012 0z" fill="#EFBE4C"/></g><defs><clipPath id="clip0_1_239"><path fill="#fff" d="M0 0h24v24H0z"/></clipPath></defs></svg>

<svg width="24" height="24" viewBox="0 0 24 24" fill="none" xmlns="http://www.w3.org/2000/svg">
<g clip-path="url(#clip0_1_239)">
<path d="M17.247 10.279C17.73 10.752 18.365 10.988 19 10.988C19.635 10.988 20.27 10.752 20.752 10.279L22.535 8.535C24.485 6.585 24.485 3.413 22.535 1.464C21.591 0.52 20.335 0 19 0C17.665 0 16.409 0.52 15.464 1.464C13.515 3.414 13.515 6.586 15.472 8.543L17.247 10.279ZM16.878 2.879C17.445 2.312 18.198 2 19 2C19.802 2 20.555 2.312 21.121 2.878C22.291 4.048 22.291 5.951 21.129 7.113L19.354 8.849C19.159 9.041 18.841 9.041 18.646 8.849L16.879 7.121C15.71 5.951 15.71 4.048 16.879 2.878L16.878 2.879ZM4 22C4 23.105 3.105 24 2 24C0.895 24 0 23.105 0 22C0 20.895 0.895 20 2 20C3.105 20 4 20.895 4 22ZM14.5 16C14.5 17.105 13.605 18 12.5 18C11.395 18 10.5 17.105 10.5 16C10.5 14.895 11.395 14 12.5 14C13.605 14 14.5 14.895 14.5 16ZM2 13C2 10.794 3.794 9 6 9H13C13.552 9 14 9.448 14 10C14 10.552 13.552 11 13 11H6C4.897 11 4 11.897 4 13C4 14.103 4.897 15 6 15H8C8.552 15 9 15.448 9 16C9 16.552 8.552 17 8 17H6C3.794 17 2 15.206 2 13ZM24 19C24 21.206 22.206 23 20 23H7C6.448 23 6 22.552 6 22C6 21.448 6.448 21 7 21H20C21.103 21 22 20.103 22 19C22 17.897 21.103 17 20 17H17C16.448 17 16 16.552 16 16C16 15.448 16.448 15 17 15H20C22.206 15 24 16.794 24 19ZM20.001 4.787C20.001 5.339 19.553 5.787 19.001 5.787C18.449 5.787 18.001 5.339 18.001 4.787C18.001 4.235 18.449 3.787 19.001 3.787C19.553 3.787 20.001 4.235 20.001 4.787Z" fill="#EFBE4C"/>
</g>
<defs>
<clipPath id="clip0_1_239">
<rect width="24" height="24" fill="white"/>
</clipPath>
</defs>
</svg>
